icons/svg/poi_colored/breakwater.svg

<?xml version="1.0" encoding="UTF-8" standalone="no"?>
<!-- Created with Inkscape (http://www.inkscape.org/) -->

<svg
   xmlns:dc="http://purl.org/dc/elements/1.1/"
   xmlns:cc="http://creativecommons.org/ns#"
   xmlns:rdf="http://www.w3.org/1999/02/22-rdf-syntax-ns#"
   xmlns:svg="http://www.w3.org/2000/svg"
   xmlns="http://www.w3.org/2000/svg"
   xmlns:sodipodi="http://sodipodi.sourceforge.net/DTD/sodipodi-0.dtd"
   xmlns:inkscape="http://www.inkscape.org/namespaces/inkscape"
   version="1.0"
   width="580"
   height="580"
   id="svg2"
   sodipodi:version="0.32"
   inkscape:version="0.91 r"
   sodipodi:docname="breakwater.svg"
   inkscape:output_extension="org.inkscape.output.svg.inkscape">
  <metadata
     id="metadata1976">
    <rdf:RDF>
      <cc:Work
         rdf:about="">
        <dc:format>image/svg+xml</dc:format>
        <dc:type
           rdf:resource="http://purl.org/dc/dcmitype/StillImage" />
        <cc:license
           rdf:resource="http://web.resource.org/cc/PublicDomain" />
        <dc:language>en</dc:language>
      </cc:Work>
    </rdf:RDF>
  </metadata>
  <sodipodi:namedview
     inkscape:window-height="1005"
     inkscape:window-width="1280"
     inkscape:pageshadow="2"
     inkscape:pageopacity="0.0"
     guidetolerance="10.0"
     gridtolerance="10.0"
     objecttolerance="10.0"
     borderopacity="1.0"
     bordercolor="#666666"
     pagecolor="#ffffff"
     id="base"
     inkscape:zoom="0.46083856"
     inkscape:cx="469.57047"
     inkscape:cy="404.48786"
     inkscape:window-x="1912"
     inkscape:window-y="0"
     inkscape:current-layer="svg2"
     showgrid="false"
     inkscape:window-maximized="0" />
  <defs
     id="defs4">
    <inkscape:perspective
       sodipodi:type="inkscape:persp3d"
       inkscape:vp_x="0 : 290 : 1"
       inkscape:vp_y="0 : 1000 : 0"
       inkscape:vp_z="580 : 290 : 1"
       inkscape:persp3d-origin="290 : 193.33333 : 1"
       id="perspective3653" />
  </defs>
  <g
     id="g1327">
    <path
       d="M 66.275,1.768 C 24.94,1.768 1.704,23.139 1.704,66.804 L 1.704,516.927 C 1.704,557.771 22.6,579.156 63.896,579.156 L 515.92,579.156 C 557.227,579.156 578.149,558.842 578.149,516.927 L 578.149,66.804 C 578.149,24.203 557.227,1.768 514.628,1.768 C 514.624,1.768 66.133,1.625 66.275,1.768 z "
       style="fill:#111;stroke:#eee;stroke-width:3.40799999"
       id="path1329" />
  </g>
  <g
     transform="translate(0,4.637644e-6)"
     id="g7"
     inkscape:output_extension="org.inkscape.output.svg.inkscape"
     inkscape:version="0.46"
     sodipodi:docname="waste_bin.svg"
     sodipodi:version="0.32">
    <g
       id="g9">
      <path
         style="fill:#ffffff"
         inkscape:connector-curvature="0"
         d="m 108.839,56.762 c 0,0 169.455,222.767 -36.176,466.477 l 199.918,0 c 0,0 54.149,-291.31 -108.108,-466.477 l -55.634,0 z"
         id="path11" />
      <path
         style="fill:#ffffff"
         inkscape:connector-curvature="0"
         d="M 470.648,68.885 C 454.247,68.943 437.902,58.019 421.84,57.782 405.552,57.37 390.112,67.47 374.898,67.349 359.911,67.056 346.62,56.304 331.746,56.776 316.475,57.37 299.734,69.18 284.804,69.889 269.761,70.126 256.13,58.905 242.84,58.785 c -11.36,-0.2 -23.885,5.824 -32.954,8.821 6.832,7.996 13.248,16.205 19.269,24.592 4.556,-1.29 9.21,-2.188 13.685,-2.109 13.291,0.119 26.921,11.34 41.964,11.102 14.931,-0.588 31.672,-12.697 46.942,-13.111 14.874,-0.59 28.164,10.396 43.152,10.631 15.215,0.12 30.654,-9.92 46.942,-9.625 16.062,0.234 32.406,11.159 48.808,11.104 12.371,-0.273 24.243,-7.186 36.688,-10.441 l 0,-31.304 C 494.892,61.7 483.02,68.612 470.648,68.885 Z"
         id="path13" />
      <path
         style="fill:#ffffff"
         inkscape:connector-curvature="0"
         d="m 421.841,128.069 c -16.288,-0.414 -31.728,9.687 -46.942,9.568 -14.987,-0.295 -28.278,-11.045 -43.152,-10.571 -15.271,0.589 -32.012,12.401 -46.942,13.112 -10.958,0.171 -21.165,-5.734 -31.039,-9.001 6.943,12.555 13.167,25.357 18.736,38.308 4.006,1.231 8.1,2.061 12.303,1.996 14.931,-0.712 31.672,-12.523 46.942,-13.113 14.874,-0.473 28.164,10.277 43.152,10.572 15.215,0.118 30.654,-9.982 46.942,-9.568 16.062,0.237 32.406,11.163 48.808,11.103 12.371,-0.271 24.243,-7.185 36.688,-10.439 l 0,-31.3 c -12.445,3.255 -24.317,10.167 -36.688,10.438 -16.402,0.058 -32.747,-10.867 -48.808,-11.105 z"
         id="path15" />
      <path
         style="fill:#ffffff"
         inkscape:connector-curvature="0"
         d="m 421.841,198.338 c -16.288,-0.414 -31.728,9.687 -46.942,9.568 -14.987,-0.295 -28.278,-11.045 -43.152,-10.571 -14.258,0.55 -29.797,10.881 -43.948,12.828 3.181,9.754 6.041,19.528 8.608,29.284 11.688,-3.658 23.925,-10.369 35.34,-10.81 14.874,-0.473 28.164,10.277 43.152,10.572 15.215,0.118 30.654,-9.982 46.942,-9.568 16.062,0.237 32.406,11.163 48.808,11.103 12.371,-0.271 24.243,-7.185 36.688,-10.439 l 0,-31.3 c -12.445,3.255 -24.317,10.167 -36.688,10.438 -16.402,0.058 -32.747,-10.867 -48.808,-11.105 z"
         id="path17" />
      <path
         style="fill:#ffffff"
         inkscape:connector-curvature="0"
         d="m 421.841,268.607 c -16.288,-0.414 -31.728,9.687 -46.942,9.568 -14.987,-0.295 -28.278,-11.045 -43.152,-10.571 -8.757,0.338 -17.997,4.365 -27.103,7.875 1.931,9.874 3.593,19.672 5.011,29.349 7.462,-2.906 14.938,-5.646 22.092,-5.922 14.874,-0.473 28.164,10.277 43.152,10.572 15.215,0.118 30.654,-9.982 46.942,-9.568 16.062,0.237 32.406,11.163 48.808,11.103 12.371,-0.271 24.243,-7.185 36.688,-10.439 l 0,-31.3 c -12.445,3.255 -24.317,10.167 -36.688,10.438 -16.402,0.059 -32.747,-10.867 -48.808,-11.105 z"
         id="path19" />
      <path
         style="fill:#ffffff"
         inkscape:connector-curvature="0"
         d="m 421.841,338.877 c -16.288,-0.414 -31.728,9.687 -46.942,9.568 -14.987,-0.295 -28.278,-11.045 -43.152,-10.571 -5.747,0.222 -11.701,2.033 -17.69,4.244 0.943,10.43 1.63,20.632 2.105,30.545 5.277,-1.854 10.513,-3.291 15.585,-3.487 14.874,-0.473 28.164,10.277 43.152,10.572 15.215,0.118 30.654,-9.982 46.942,-9.568 16.062,0.237 32.406,11.163 48.808,11.103 12.371,-0.271 24.243,-7.185 36.688,-10.439 l 0,-31.3 c -12.445,3.255 -24.317,10.167 -36.688,10.438 -16.402,0.058 -32.747,-10.868 -48.808,-11.105 z"
         id="path21" />
      <path
         style="fill:#ffffff"
         inkscape:connector-curvature="0"
         d="m 421.841,409.146 c -16.288,-0.414 -31.728,9.687 -46.942,9.568 -14.987,-0.295 -28.278,-11.045 -43.152,-10.571 -4.794,0.185 -9.732,1.477 -14.715,3.183 -0.028,11.135 -0.292,21.692 -0.713,31.551 5.224,-1.827 10.405,-3.237 15.428,-3.432 14.874,-0.473 28.164,10.277 43.152,10.572 15.215,0.118 30.654,-9.982 46.942,-9.568 16.062,0.237 32.406,11.163 48.808,11.103 12.371,-0.271 24.243,-7.185 36.688,-10.439 l 0,-31.301 c -12.445,3.256 -24.317,10.168 -36.688,10.438 -16.402,0.059 -32.747,-10.867 -48.808,-11.104 z"
         id="path23" />
      <path
         style="fill:#ffffff"
         inkscape:connector-curvature="0"
         d="m 421.841,479.415 c -16.288,-0.414 -31.728,9.687 -46.942,9.568 -14.987,-0.295 -28.278,-11.045 -43.152,-10.571 -5.899,0.228 -12.019,2.132 -18.168,4.423 -1.406,14.726 -2.939,25.978 -3.979,32.822 7.48,-2.915 14.976,-5.666 22.146,-5.943 14.874,-0.473 28.164,10.277 43.152,10.572 15.215,0.118 30.654,-9.982 46.942,-9.568 16.062,0.237 32.406,11.163 48.808,11.103 12.371,-0.271 24.243,-7.185 36.688,-10.439 l 0,-31.302 c -12.445,3.256 -24.317,10.168 -36.688,10.438 -16.401,0.06 -32.746,-10.866 -48.807,-11.103 z"
         id="path25" />
    </g>
  </g>
</svg>

<svg width="580" height="580" viewBox="0 0 580 580" fill="none" xmlns="http://www.w3.org/2000/svg">
<g clip-path="url(#clip0)">
<path d="M66.2751 1.76802C24.9401 1.76802 1.7041 23.139 1.7041 66.804V516.927C1.7041 557.771 22.6001 579.156 63.8961 579.156H515.92C557.227 579.156 578.149 558.842 578.149 516.927V66.804C578.149 24.203 557.227 1.76802 514.628 1.76802C514.624 1.76802 66.1331 1.62502 66.2751 1.76802Z" fill="#111111" stroke="#EEEEEE" stroke-width="3.408"/>
<path d="M108.839 56.762C108.839 56.762 278.294 279.529 72.6631 523.239H272.581C272.581 523.239 326.73 231.929 164.473 56.762H108.839V56.762Z" fill="white"/>
<path d="M470.648 68.885C454.247 68.943 437.902 58.019 421.84 57.782C405.552 57.37 390.112 67.47 374.898 67.349C359.911 67.056 346.62 56.304 331.746 56.776C316.475 57.37 299.734 69.18 284.804 69.889C269.761 70.126 256.13 58.905 242.84 58.785C231.48 58.585 218.955 64.609 209.886 67.606C216.718 75.602 223.134 83.811 229.155 92.198C233.711 90.908 238.365 90.01 242.84 90.089C256.131 90.208 269.761 101.429 284.804 101.191C299.735 100.603 316.476 88.494 331.746 88.08C346.62 87.49 359.91 98.476 374.898 98.711C390.113 98.831 405.552 88.791 421.84 89.086C437.902 89.32 454.246 100.245 470.648 100.19C483.019 99.917 494.891 93.004 507.336 89.749V58.445C494.892 61.7 483.02 68.612 470.648 68.885Z" fill="white"/>
<path d="M421.841 128.069C405.553 127.655 390.113 137.756 374.899 137.637C359.912 137.342 346.621 126.592 331.747 127.066C316.476 127.655 299.735 139.467 284.805 140.178C273.847 140.349 263.64 134.444 253.766 131.177C260.709 143.732 266.933 156.534 272.502 169.485C276.508 170.716 280.602 171.546 284.805 171.481C299.736 170.769 316.477 158.958 331.747 158.368C346.621 157.895 359.911 168.645 374.899 168.94C390.114 169.058 405.553 158.958 421.841 159.372C437.903 159.609 454.247 170.535 470.649 170.475C483.02 170.204 494.892 163.29 507.337 160.036V128.736C494.892 131.991 483.02 138.903 470.649 139.174C454.247 139.232 437.902 128.307 421.841 128.069Z" fill="white"/>
<path d="M421.841 198.338C405.553 197.924 390.113 208.025 374.899 207.906C359.912 207.611 346.621 196.861 331.747 197.335C317.489 197.885 301.95 208.216 287.799 210.163C290.98 219.917 293.84 229.691 296.407 239.447C308.095 235.789 320.332 229.078 331.747 228.637C346.621 228.164 359.911 238.914 374.899 239.209C390.114 239.327 405.553 229.227 421.841 229.641C437.903 229.878 454.247 240.804 470.649 240.744C483.02 240.473 494.892 233.559 507.337 230.305V199.005C494.892 202.26 483.02 209.172 470.649 209.443C454.247 209.501 437.902 198.576 421.841 198.338V198.338Z" fill="white"/>
<path d="M421.841 268.607C405.553 268.193 390.113 278.294 374.899 278.175C359.912 277.88 346.621 267.13 331.747 267.604C322.99 267.942 313.75 271.969 304.644 275.479C306.575 285.353 308.237 295.151 309.655 304.828C317.117 301.922 324.593 299.182 331.747 298.906C346.621 298.433 359.911 309.183 374.899 309.478C390.114 309.596 405.553 299.496 421.841 299.91C437.903 300.147 454.247 311.073 470.649 311.013C483.02 310.742 494.892 303.828 507.337 300.574V269.274C494.892 272.529 483.02 279.441 470.649 279.712C454.247 279.771 437.902 268.845 421.841 268.607V268.607Z" fill="white"/>
<path d="M421.841 338.877C405.553 338.463 390.113 348.564 374.899 348.445C359.912 348.15 346.621 337.4 331.747 337.874C326 338.096 320.046 339.907 314.057 342.118C315 352.548 315.687 362.75 316.162 372.663C321.439 370.809 326.675 369.372 331.747 369.176C346.621 368.703 359.911 379.453 374.899 379.748C390.114 379.866 405.553 369.766 421.841 370.18C437.903 370.417 454.247 381.343 470.649 381.283C483.02 381.012 494.892 374.098 507.337 370.844V339.544C494.892 342.799 483.02 349.711 470.649 349.982C454.247 350.04 437.902 339.114 421.841 338.877V338.877Z" fill="white"/>
<path d="M421.841 409.146C405.553 408.732 390.113 418.833 374.899 418.714C359.912 418.419 346.621 407.669 331.747 408.143C326.953 408.328 322.015 409.62 317.032 411.326C317.004 422.461 316.74 433.018 316.319 442.877C321.543 441.05 326.724 439.64 331.747 439.445C346.621 438.972 359.911 449.722 374.899 450.017C390.114 450.135 405.553 440.035 421.841 440.449C437.903 440.686 454.247 451.612 470.649 451.552C483.02 451.281 494.892 444.367 507.337 441.113V409.812C494.892 413.068 483.02 419.98 470.649 420.25C454.247 420.309 437.902 409.383 421.841 409.146V409.146Z" fill="white"/>
<path d="M421.841 479.415C405.553 479.001 390.113 489.102 374.899 488.983C359.912 488.688 346.621 477.938 331.747 478.412C325.848 478.64 319.728 480.544 313.579 482.835C312.173 497.561 310.64 508.813 309.6 515.657C317.08 512.742 324.576 509.991 331.746 509.714C346.62 509.241 359.91 519.991 374.898 520.286C390.113 520.404 405.552 510.304 421.84 510.718C437.902 510.955 454.246 521.881 470.648 521.821C483.019 521.55 494.891 514.636 507.336 511.382V480.08C494.891 483.336 483.019 490.248 470.648 490.518C454.247 490.578 437.902 479.652 421.841 479.415V479.415Z" fill="white"/>
</g>
<defs>
<clipPath id="clip0">
<path d="M0 0H580V580H0V0Z" fill="white"/>
</clipPath>
</defs>
</svg>
